X:1
T:King of Kings
T:King of Kings
T:James McGranahan, 1890
T:Adapted from Psalm 136
T:Public Domain Courtesy of the Cyber Hymnal™
C:James McGranahan, 1890
Z:Public Domain
Z:Courtesy of the Cyber Hymnal™
%%score ( 1 2 ) ( 3 4 )
L:1/8
Q:1/4=98
M:3/4
K:G
V:1 treble 
V:2 treble 
V:3 bass 
V:4 bass 
V:1
 DD [DG] | [GB]3 [GB] [DA][DG] | D3 D [DG][GB] | [Gd]3 [Gd] G[GB] | [FA]3 [FA] [FA][FB] | %5
w: 1.~O thank the|Lord, the Lord of|love; O thank the|God, all gods a-|bove; O thank the|
w: 2.~His wis- dom|gave the heav’ns their|birth, And on the|wa- ters spread the|earth; He taught yon|
w: 3.~He thought on|us a- mid our|woes, And res- cued|us from all our|foes; Give thanks to|
 [Fc]3 [DF] [DG][FA] | [GB]3 [GB] [GB][Gd] | [Ec][EA] [DG]2 [DF]2 | [DG]3 || %9
w: might- y King of|kings, Whose arm has|done such won- drous|things.|
w: glor- ious lights their|way; He made the|sun to rule the|day.|
w: Heav’n’s al- might- y|king, Who dai- ly|feeds each liv- ing|thing.|
"^Refrain" [Gd][Gd] [Gd] | [Gd]3 [Gd] [G^c][Gd] | [GB]3 [GB] [GB][GB] | [GB]3 [GB] [G^A][GB] | %13
w: ||||
w: His ten- der|mer- cies ev- er|sure To all e-|ter- ni- ty en-|
w: ||||
 [DG]3 [B,D] [CE][EG] | [Ec]>[Ec] [Ec]3 | [CE][B,D] [DG] | [GB]>[GB] [GB]3 [=Fd][Fd][Fd] | %17
w: ||||
w: dure, To all e-|ter- ni- ty,|to all e-|ter- ni- ty, To all e-|
w: ||||
 [Ed]>[Ec] [DB]2 [DA]2 | [DG]3 |] %19
w: ||
w: ter- ni- ty en-|dure.|
w: ||
V:2
 DD x | x6 | D3 D x2 | x4 G x | x6 | x6 | x6 | x6 | x3 || x3 | x6 | x6 | x6 | x6 | x5 | x3 | x8 | %17
 x6 | x3 |] %19
V:3
 [G,B,][G,B,] [G,B,] | [G,D]3 [G,,D] [G,,C][G,,B,] | [G,,B,]3 [G,B,] [G,B,][G,D] | %3
 [G,B,]3 [G,B,] [B,D][G,D] | [D,D]3 [D,D] [D,C][D,B,] | [D,A,]3 [C,A,] [B,,D][D,D] | %6
 [G,D]3 [G,D] [G,D][B,,G,] | [C,G,][C,A,] [D,B,]2 [D,C]2 | [G,,B,]3 || [G,B,][G,B,] [G,B,] | %10
 [G,B,]3 [G,B,] [G,^A,][G,B,] | [G,D]3 [G,,D] [G,,D][G,,D] | [G,,D]3 [G,,D] [G,,^C][G,,D] | %13
 [G,,B,]3 z2 [C,C] | [C,G,]>[C,G,] [C,G,]3 | z2 [G,B,] | [G,D]>[G,D] [G,D]3 [G,B,][G,B,][B,,G,] | %17
 [C,G,]>[C,G,] [D,G,]2 (F,C) | [G,,B,]3 |] %19
V:4
 x3 | x6 | x6 | x6 | x6 | x6 | x6 | x6 | x3 || x3 | x6 | x6 | x6 | x6 | x5 | x3 | x8 | x4 D,2 | %18
 x3 |] %19

